;FLAVOR:RepRap
;TIME:3921
;Filament used: 2.45599m
;Layer height: 0.1
;Generated with Cura_SteamEngine 2.5.0-ExternalProfiles
M190 S60
M104 S200
M109 S200
G21 ;metric values
G90 ;absolute positioning
M82 ;set extruder to absolute mode
M107 ;start with the fan off
G28 X0 Y0 ;move X/Y to min endstops
G28 Z0 ;move Z to min endstops
G1 Z15.0 F9000 ;move the platform down 15mm
G92 E0 ;zero the extruded length
G1 F200 E3 ;extrude 3mm of feed stock
G92 E0 ;zero the extruded length again
G1 F9000
;Put printing message on LCD screen
M117 Printing...
;LAYER_COUNT:184
;LAYER:0
M107
G0 F3600 X76.598 Y76.561 Z0.3
G0 X77.065 Y76.146
;TYPE:SKIRT
G1 F1800 X78.07 Y75.345 E0.06412
G1 X78.875 Y74.807 E0.11242
G1 X79.442 Y74.493 E0.14476
G1 X80.341 Y74.091 E0.19389
G1 X81.553 Y73.668 E0.25793
G1 X82.208 Y73.482 E0.2919
G1 X82.817 Y73.38 E0.32271
G1 X84.099 Y73.236 E0.38707
G1 X84.753 Y73.2 E0.41975
G1 X115.913 Y73.238 E1.97433
G1 X116.593 Y73.279 E2.00832
G1 X117.195 Y73.383 E2.03879
G1 X118.445 Y73.668 E2.10276
G1 X119.366 Y73.961 E2.15098
G1 X119.958 Y74.205 E2.18292
G1 X120.558 Y74.493 E2.21612
G1 X121.125 Y74.807 E2.24846
G1 X121.929 Y75.344 E2.2967
G1 X122.932 Y76.143 E2.36067
G1 X123.439 Y76.598 E2.39466
G1 X123.854 Y77.065 E2.42583
G1 X124.655 Y78.07 E2.48994
G1 X125.193 Y78.875 E2.53825
G1 X125.507 Y79.442 E2.57059
G1 X125.909 Y80.341 E2.61972
G1 X126.332 Y81.553 E2.68376
G1 X126.518 Y82.208 E2.71773
G1 X126.62 Y82.816 E2.74849
G1 X126.764 Y84.097 E2.8128
G1 X126.8 Y84.752 E2.84553
G1 X126.762 Y115.913 E4.40016
G1 X126.721 Y116.593 E4.43414
G1 X126.617 Y117.193 E4.46452
G1 X126.333 Y118.441 E4.52838
G1 X126.04 Y119.366 E4.57679
G1 X125.795 Y119.96 E4.60884
G1 X125.507 Y120.558 E4.64196
G1 X125.193 Y121.125 E4.67429
G1 X124.656 Y121.929 E4.72253
G1 X123.857 Y122.932 E4.78651
G1 X123.402 Y123.439 E4.82049
G1 X122.935 Y123.854 E4.85166
G1 X121.93 Y124.655 E4.91578
G1 X121.125 Y125.193 E4.96408
G1 X120.558 Y125.507 E4.99642
G1 X119.659 Y125.909 E5.04555
G1 X118.447 Y126.332 E5.10959
G1 X117.792 Y126.518 E5.14356
G1 X117.183 Y126.62 E5.17437
G1 X115.901 Y126.764 E5.23873
G1 X115.247 Y126.8 E5.27141
G1 X84.087 Y126.762 E6.82599
G1 X83.407 Y126.721 E6.85998
G1 X82.805 Y126.617 E6.89046
G1 X81.555 Y126.332 E6.95442
G1 X80.634 Y126.039 E7.00264
G1 X80.042 Y125.795 E7.03458
G1 X79.442 Y125.507 E7.06779
G1 X78.875 Y125.193 E7.10012
G1 X78.07 Y124.655 E7.14843
G1 X77.065 Y123.854 E7.21254
G1 X76.558 Y123.399 E7.24653
G1 X76.143 Y122.932 E7.2777
G1 X75.344 Y121.929 E7.34168
G1 X74.807 Y121.125 E7.38991
G1 X74.493 Y120.558 E7.42225
G1 X74.091 Y119.659 E7.47138
G1 X73.667 Y118.444 E7.53558
G1 X73.481 Y117.789 E7.56955
G1 X73.379 Y117.178 E7.60046
G1 X73.236 Y115.9 E7.66461
G1 X73.2 Y115.248 E7.69719
G1 X73.238 Y84.087 E9.25182
G1 X73.279 Y83.407 E9.28581
G1 X73.383 Y82.807 E9.31619
G1 X73.667 Y81.559 E9.38004
G1 X73.96 Y80.634 E9.42845
G1 X74.205 Y80.04 E9.46051
G1 X74.493 Y79.442 E9.49362
G1 X74.807 Y78.875 E9.52596
G1 X75.344 Y78.071 E9.57419
G1 X76.143 Y77.068 E9.63817
G1 X76.598 Y76.561 E9.67216
G1 X77.065 Y76.146 E9.70333
G0 F3600 X77.314 Y76.459
G1 F1800 X78.319 Y75.658 E9.76744
G1 X79.069 Y75.157 E9.81244
G1 X79.636 Y74.843 E9.84478
G1 X80.473 Y74.469 E9.89051
G1 X81.685 Y74.046 E9.95456
G1 X82.317 Y73.867 E9.98733
G1 X82.861 Y73.778 E10.01483
G1 X84.143 Y73.634 E10.07919
G1 X84.753 Y73.6 E10.10967
G1 X115.913 Y73.638 E11.66425
G1 X116.568 Y73.679 E11.69699
G1 X117.106 Y73.773 E11.72424
G1 X118.356 Y74.058 E11.7882
G1 X119.214 Y74.33 E11.83311
G1 X119.806 Y74.574 E11.86505
G1 X120.364 Y74.843 E11.89596
G1 X120.931 Y75.157 E11.9283
G1 X121.68 Y75.657 E11.97322
G1 X122.683 Y76.456 E12.0372
G1 X123.171 Y76.896 E12.06998
G1 X123.541 Y77.314 E12.09783
G1 X124.342 Y78.319 E12.16195
G1 X124.843 Y79.069 E12.20695
G1 X125.157 Y79.636 E12.23928
G1 X125.531 Y80.473 E12.28502
G1 X125.954 Y81.685 E12.34906
G1 X126.133 Y82.317 E12.38183
G1 X126.222 Y82.861 E12.40934
G1 X126.366 Y84.142 E12.47365
G1 X126.4 Y84.752 E12.50413
G1 X126.362 Y115.913 E14.05876
G1 X126.321 Y116.568 E14.0915
G1 X126.227 Y117.104 E14.11865
G1 X125.943 Y118.352 E14.1825
G1 X125.67 Y119.213 E14.22757
G1 X125.425 Y119.807 E14.25962
G1 X125.157 Y120.364 E14.29046
G1 X124.843 Y120.931 E14.3228
G1 X124.343 Y121.68 E14.36773
G1 X123.544 Y122.683 E14.4317
G1 X123.104 Y123.171 E14.46448
G1 X122.686 Y123.541 E14.49233
G1 X121.681 Y124.342 E14.55645
G1 X120.931 Y124.843 E14.60145
G1 X120.364 Y125.157 E14.63379
G1 X119.527 Y125.531 E14.67952
G1 X118.315 Y125.954 E14.74357
G1 X117.683 Y126.133 E14.77634
G1 X117.139 Y126.222 E14.80384
G1 X115.857 Y126.366 E14.8682
G1 X115.247 Y126.4 E14.89868
G1 X84.087 Y126.362 E16.45326
G1 X83.432 Y126.321 E16.486
G1 X82.894 Y126.227 E16.51325
G1 X81.644 Y125.942 E16.57721
G1 X80.786 Y125.67 E16.62212
G1 X80.194 Y125.426 E16.65406
G1 X79.636 Y125.157 E16.68497
G1 X79.069 Y124.843 E16.7173
G1 X78.319 Y124.342 E16.7623
G1 X77.314 Y123.541 E16.82642
G1 X76.826 Y123.101 E16.8592
G1 X76.456 Y122.683 E16.88705
G1 X75.657 Y121.68 E16.95103
G1 X75.157 Y120.931 E16.99596
G1 X74.843 Y120.364 E17.02829
G1 X74.469 Y119.527 E17.07403
G1 X74.045 Y118.312 E17.13823
G1 X73.866 Y117.68 E17.171
G1 X73.776 Y117.133 E17.19866
G1 X73.633 Y115.855 E17.26282
G1 X73.6 Y115.248 E17.29314
G1 X73.638 Y84.087 E18.84777
G1 X73.679 Y83.432 E18.88052
G1 X73.773 Y82.896 E18.90766
G1 X74.057 Y81.648 E18.97152
G1 X74.33 Y80.787 E19.01658
G1 X74.575 Y80.193 E19.04864
G1 X74.843 Y79.636 E19.07948
G1 X75.157 Y79.069 E19.11181
G1 X75.657 Y78.32 E19.15674
G1 X76.456 Y77.317 E19.22072
G1 X76.896 Y76.829 E19.2535
G1 X77.314 Y76.459 E19.28135
G0 F3600 X77.564 Y76.772
G1 F1800 X78.569 Y75.971 E19.34547
G1 X79.263 Y75.507 E19.38712
G1 X79.83 Y75.193 E19.41945
G1 X80.604 Y74.846 E19.46177
G1 X81.816 Y74.423 E19.52581
G1 X82.425 Y74.253 E19.55736
G1 X82.906 Y74.175 E19.58167
G1 X84.188 Y74.031 E19.64603
G1 X84.752 Y74 E19.67421
G1 X115.912 Y74.038 E21.22879
G1 X116.543 Y74.079 E21.26034
G1 X117.017 Y74.163 E21.28436
G1 X118.267 Y74.448 E21.34832
G1 X119.061 Y74.7 E21.38988
G1 X119.653 Y74.944 E21.42182
G1 X120.17 Y75.193 E21.45045
G1 X120.737 Y75.507 E21.48279
G1 X121.43 Y75.97 E21.52437
G1 X122.433 Y76.769 E21.58835
G1 X122.902 Y77.194 E21.61992
G1 X123.228 Y77.564 E21.64452
G1 X124.029 Y78.569 E21.70864
G1 X124.493 Y79.263 E21.75029
G1 X124.807 Y79.83 E21.78263
G1 X125.154 Y80.604 E21.82494
G1 X125.577 Y81.816 E21.88899
G1 X125.747 Y82.425 E21.92053
G1 X125.825 Y82.905 E21.94479
G1 X125.969 Y84.186 E22.00911
G1 X126 Y84.751 E22.03734
G1 X125.962 Y115.912 E23.59197
G1 X125.921 Y116.543 E23.62351
G1 X125.837 Y117.015 E23.64743
G1 X125.553 Y118.263 E23.71129
G1 X125.3 Y119.06 E23.753
G1 X125.055 Y119.654 E23.78506
G1 X124.807 Y120.17 E23.81362
G1 X124.493 Y120.737 E23.84596
G1 X124.03 Y121.43 E23.88754
G1 X123.231 Y122.433 E23.95152
G1 X122.806 Y122.902 E23.98309
G1 X122.436 Y123.228 E24.00769
G1 X121.431 Y124.029 E24.07181
G1 X120.737 Y124.493 E24.11346
G1 X120.17 Y124.807 E24.1458
G1 X119.396 Y125.154 E24.18811
G1 X118.184 Y125.577 E24.25216
G1 X117.575 Y125.747 E24.2837
G1 X117.094 Y125.825 E24.30801
G1 X115.812 Y125.969 E24.37238
G1 X115.248 Y126 E24.40056
G1 X84.088 Y125.962 E25.95514
G1 X83.457 Y125.921 E25.98668
G1 X82.983 Y125.837 E26.0107
G1 X81.733 Y125.552 E26.07466
G1 X80.939 Y125.3 E26.11622
G1 X80.347 Y125.056 E26.14817
G1 X79.83 Y124.807 E26.1768
G1 X79.263 Y124.493 E26.20913
G1 X78.569 Y124.029 E26.25078
G1 X77.564 Y123.228 E26.3149
G1 X77.095 Y122.804 E26.34644
G1 X76.769 Y122.433 E26.37108
G1 X75.97 Y121.43 E26.43506
G1 X75.507 Y120.737 E26.47664
G1 X75.193 Y120.17 E26.50897
G1 X74.846 Y119.395 E26.55134
G1 X74.422 Y118.18 E26.61554
G1 X74.252 Y117.572 E26.64704
G1 X74.174 Y117.089 E26.67144
G1 X74.031 Y115.811 E26.7356
G1 X74 Y115.249 E26.76368
G1 X74.038 Y84.088 E28.31831
G1 X74.079 Y83.457 E28.34986
G1 X74.163 Y82.985 E28.37378
G1 X74.447 Y81.737 E28.43763
G1 X74.7 Y80.94 E28.47935
G1 X74.945 Y80.346 E28.51141
G1 X75.193 Y79.83 E28.53997
G1 X75.507 Y79.263 E28.57231
G1 X75.97 Y78.57 E28.61389
G1 X76.769 Y77.567 E28.67786
G1 X77.194 Y77.098 E28.70944
G1 X77.564 Y76.772 E28.73404
G0 F3600 X77.813 Y77.085
G1 F1800 X78.818 Y76.284 E28.79816
G1 X79.456 Y75.857 E28.83646
G1 X80.023 Y75.543 E28.86879
G1 X80.736 Y75.224 E28.90776
G1 X81.948 Y74.801 E28.97181
G1 X82.533 Y74.639 E29.00209
G1 X82.951 Y74.573 E29.0232
G1 X84.233 Y74.429 E29.08757
G1 X84.752 Y74.4 E29.1135
G1 X115.912 Y74.438 E30.66808
G1 X116.517 Y74.479 E30.69833
G1 X116.929 Y74.553 E30.71922
G1 X118.179 Y74.838 E30.78318
G1 X118.909 Y75.07 E30.82139
G1 X119.501 Y75.314 E30.85334
G1 X119.977 Y75.543 E30.87969
G1 X120.544 Y75.857 E30.91203
G1 X121.181 Y76.283 E30.95026
G1 X122.184 Y77.082 E31.01424
G1 X122.632 Y77.49 E31.04447
G1 X122.915 Y77.813 E31.06589
G1 X123.716 Y78.818 E31.13001
G1 X124.143 Y79.456 E31.16831
G1 X124.457 Y80.023 E31.20065
G1 X124.776 Y80.736 E31.23962
G1 X125.199 Y81.948 E31.30366
G1 X125.361 Y82.533 E31.33394
G1 X125.427 Y82.95 E31.35501
G1 X125.571 Y84.231 E31.41932
G1 X125.6 Y84.751 E31.4453
G1 X125.562 Y115.912 E32.99993
G1 X125.521 Y116.517 E33.03018
G1 X125.447 Y116.927 E33.05097
G1 X125.163 Y118.175 E33.11482
G1 X124.93 Y118.908 E33.1532
G1 X124.685 Y119.502 E33.18525
G1 X124.457 Y119.977 E33.21154
G1 X124.143 Y120.544 E33.24388
G1 X123.717 Y121.181 E33.28211
G1 X122.918 Y122.184 E33.34608
G1 X122.51 Y122.632 E33.37631
G1 X122.187 Y122.915 E33.39774
G1 X121.182 Y123.716 E33.46186
G1 X120.544 Y124.143 E33.50016
G1 X119.977 Y124.457 E33.53249
G1 X119.264 Y124.776 E33.57146
G1 X118.052 Y125.199 E33.63551
G1 X117.467 Y125.361 E33.66579
G1 X117.049 Y125.427 E33.6869
G1 X115.767 Y125.571 E33.75126
G1 X115.248 Y125.6 E33.7772
G1 X84.088 Y125.562 E35.33178
G1 X83.483 Y125.521 E35.36203
G1 X83.071 Y125.447 E35.38291
G1 X81.821 Y125.162 E35.44688
G1 X81.091 Y124.93 E35.48509
G1 X80.499 Y124.686 E35.51704
G1 X80.023 Y124.457 E35.54339
G1 X79.456 Y124.143 E35.57573
G1 X78.818 Y123.716 E35.61403
G1 X77.813 Y122.915 E35.67814
G1 X77.365 Y122.507 E35.70837
G1 X77.082 Y122.184 E35.7298
G1 X76.283 Y121.181 E35.79378
G1 X75.857 Y120.544 E35.83201
G1 X75.543 Y119.977 E35.86434
G1 X75.224 Y119.264 E35.90331
G1 X74.8 Y118.049 E35.96752
G1 X74.638 Y117.464 E35.9978
G1 X74.572 Y117.045 E36.01896
G1 X74.429 Y115.767 E36.08312
G1 X74.4 Y115.249 E36.109
G1 X74.438 Y84.088 E37.66363
G1 X74.479 Y83.483 E37.69388
G1 X74.553 Y83.073 E37.71467
G1 X74.837 Y81.825 E37.77853
G1 X75.07 Y81.092 E37.8169
G1 X75.315 Y80.498 E37.84895
G1 X75.543 Y80.023 E37.87524
G1 X75.857 Y79.456 E37.90758
G1 X76.283 Y78.819 E37.94581
G1 X77.082 Y77.816 E38.00978
G1 X77.49 Y77.368 E38.04002
G1 X77.813 Y77.085 E38.06144
G0 F3600 X78.062 Y77.398
G1 F1800 X79.067 Y76.597 E38.12556
G1 X79.65 Y76.207 E38.16055
G1 X80.217 Y75.893 E38.19289
G1 X80.868 Y75.602 E38.22846
G1 X82.08 Y75.179 E38.29251
G1 X82.639 Y75.026 E38.32142
G1 X82.995 Y74.97 E38.3394
G1 X84.277 Y74.826 E38.40376
G1 X84.751 Y74.8 E38.42744
G1 X115.911 Y74.838 E39.98202
G1 X116.489 Y74.879 E40.01093
G1 X116.84 Y74.943 E40.02873
G1 X118.09 Y75.228 E40.0927
G1 X118.756 Y75.44 E40.12757
G1 X119.348 Y75.684 E40.15951
G1 X119.783 Y75.893 E40.18359
G1 X120.35 Y76.207 E40.21592
G1 X120.932 Y76.596 E40.25085
G1 X121.935 Y77.395 E40.31483
G1 X122.362 Y77.786 E40.34371
G1 X122.602 Y78.062 E40.36196
G1 X123.403 Y79.067 E40.42608
G1 X123.793 Y79.65 E40.46107
G1 X124.107 Y80.217 E40.49341
G1 X124.398 Y80.868 E40.52898
G1 X124.821 Y82.08 E40.59302
G1 X124.974 Y82.639 E40.62194
G1 X125.03 Y82.995 E40.63992
G1 X125.174 Y84.276 E40.70423
G1 X125.2 Y84.75 E40.72791
G1 X125.162 Y115.911 E42.28254
G1 X125.121 Y116.489 E42.31145
G1 X125.057 Y116.838 E42.32915
G1 X124.773 Y118.086 E42.39301
G1 X124.561 Y118.755 E42.42802
G1 X124.316 Y119.349 E42.46008
G1 X124.107 Y119.783 E42.48411
G1 X123.793 Y120.35 E42.51645
G1 X123.404 Y120.932 E42.55137
G1 X122.605 Y121.935 E42.61535
G1 X122.214 Y122.362 E42.64423
G1 X121.938 Y122.602 E42.66248
G1 X120.933 Y123.403 E42.7266
G1 X120.35 Y123.793 E42.76159
G1 X119.783 Y124.107 E42.79393
G1 X119.132 Y124.398 E42.8295
G1 X117.92 Y124.821 E42.89355
G1 X117.361 Y124.974 E42.92246
G1 X117.005 Y125.03 E42.94044
G1 X115.723 Y125.174 E43.0048
G1 X115.249 Y125.2 E43.02848
G1 X84.089 Y125.162 E44.58306
G1 X83.511 Y125.121 E44.61197
G1 X83.16 Y125.057 E44.62977
G1 X81.91 Y124.772 E44.69374
G1 X81.244 Y124.56 E44.72861
G1 X80.652 Y124.316 E44.76055
G1 X80.217 Y124.107 E44.78463
G1 X79.65 Y123.793 E44.81696
G1 X79.067 Y123.403 E44.85196
G1 X78.062 Y122.602 E44.91608
G1 X77.635 Y122.211 E44.94496
G1 X77.395 Y121.935 E44.96321
G1 X76.596 Y120.932 E45.02718
G1 X76.207 Y120.35 E45.06211
G1 X75.893 Y119.783 E45.09445
G1 X75.602 Y119.132 E45.13002
G1 X75.178 Y117.917 E45.19422
G1 X75.025 Y117.358 E45.22314
G1 X74.969 Y117 E45.24121
G1 X74.826 Y115.722 E45.30537
G1 X74.8 Y115.25 E45.32896
G1 X74.838 Y84.089 E46.88359
G1 X74.879 Y83.511 E46.91249
G1 X74.943 Y83.162 E46.9302
G1 X75.227 Y81.914 E46.99405
G1 X75.439 Y81.245 E47.02906
G1 X75.684 Y80.651 E47.06112
G1 X75.893 Y80.217 E47.08515
G1 X76.207 Y79.65 E47.11749
G1 X76.596 Y79.068 E47.15241
G1 X77.395 Y78.065 E47.21639
G1 X77.786 Y77.638 E47.24527
G1 X78.062 Y77.398 E47.26352
G0 F3600 X78.312 Y77.71
G1 F1800 X79.317 Y76.909 E47.32764
G1 X79.844 Y76.557 E47.35926
G1 X80.411 Y76.243 E47.39159
G1 X81 Y75.979 E47.42379
G1 X82.212 Y75.556 E47.48784
G1 X82.744 Y75.413 E47.51532
G1 X83.04 Y75.368 E47.53026
G1 X84.322 Y75.224 E47.59462
G1 X84.751 Y75.2 E47.61606
G1 X115.911 Y75.238 E49.17064
G1 X116.46 Y75.279 E49.1981
G1 X116.751 Y75.333 E49.21287
G1 X118.001 Y75.618 E49.27683
G1 X118.604 Y75.81 E49.3084
G1 X119.196 Y76.054 E49.34035
G1 X119.589 Y76.243 E49.36211
G1 X120.156 Y76.557 E49.39444
G1 X120.683 Y76.909 E49.42606
G1 X121.686 Y77.708 E49.49004
G1 X122.091 Y78.081 E49.51751
G1 X122.29 Y78.312 E49.53272
G1 X123.091 Y79.317 E49.59683
G1 X123.443 Y79.844 E49.62845
G1 X123.757 Y80.411 E49.66079
G1 X124.021 Y81 E49.69299
G1 X124.444 Y82.212 E49.75703
G1 X124.587 Y82.744 E49.78452
G1 X124.632 Y83.04 E49.79945
G1 X124.776 Y84.321 E49.86377
G1 X124.8 Y84.75 E49.8852
G1 X124.762 Y115.911 E51.43983
G1 X124.721 Y116.46 E51.4673
G1 X124.667 Y116.749 E51.48197
G1 X124.383 Y117.997 E51.54582
G1 X124.191 Y118.603 E51.57753
G1 X123.946 Y119.197 E51.60959
G1 X123.757 Y119.589 E51.6313
G1 X123.443 Y120.156 E51.66364
G1 X123.091 Y120.683 E51.69526
G1 X122.292 Y121.686 E51.75923
G1 X121.919 Y122.091 E51.7867
G1 X121.688 Y122.29 E51.80191
G1 X120.683 Y123.091 E51.86603
G1 X120.156 Y123.443 E51.89765
G1 X119.589 Y123.757 E51.92998
G1 X119 Y124.021 E51.96219
G1 X117.788 Y124.444 E52.02623
G1 X117.256 Y124.587 E52.05371
G1 X116.96 Y124.632 E52.06865
G1 X115.678 Y124.776 E52.13301
G1 X115.249 Y124.8 E52.15445
G1 X84.089 Y124.762 E53.70903
G1 X83.54 Y124.721 E53.73649
G1 X83.249 Y124.667 E53.75126
G1 X81.999 Y124.382 E53.81522
G1 X81.396 Y124.19 E53.84679
G1 X80.804 Y123.946 E53.87874
G1 X80.411 Y123.757 E53.9005
G1 X79.844 Y123.443 E53.93283
G1 X79.317 Y123.091 E53.96445
G1 X78.312 Y122.29 E54.02857
G1 X77.907 Y121.916 E54.05607
G1 X77.708 Y121.686 E54.07124
G1 X76.909 Y120.683 E54.13522
G1 X76.557 Y120.156 E54.16684
G1 X76.243 Y119.589 E54.19917
G1 X75.979 Y119 E54.23138
G1 X75.555 Y117.785 E54.29558
G1 X75.412 Y117.253 E54.32306
G1 X75.367 Y116.956 E54.33805
G1 X75.224 Y115.678 E54.4022
G1 X75.2 Y115.25 E54.42359
G1 X75.238 Y84.089 E55.97822
G1 X75.279 Y83.54 E56.00569
G1 X75.333 Y83.251 E56.02035
G1 X75.617 Y82.003 E56.08421
G1 X75.809 Y81.397 E56.11592
G1 X76.054 Y80.803 E56.14798
G1 X76.243 Y80.411 E56.16969
G1 X76.557 Y79.844 E56.20203
G1 X76.909 Y79.317 E56.23365
G1 X77.708 Y78.314 E56.29762
G1 X78.081 Y77.909 E56.32509
G1 X78.312 Y77.71 E56.3403
G0 F3600 X78.561 Y78.023
G1 F1800 X79.566 Y77.222 E56.40442
G1 X80.038 Y76.907 E56.43273
G1 X80.605 Y76.593 E56.46507
G1 X81.132 Y76.357 E56.49387
G1 X82.344 Y75.934 E56.55792
G1 X83.084 Y75.765 E56.59579
G1 X84.366 Y75.621 E56.66015
G1 X84.75 Y75.6 E56.67934
G1 X115.91 Y75.638 E58.23391
G1 X116.662 Y75.723 E58.27167
G1 X117.912 Y76.008 E58.33563
G1 X118.452 Y76.18 E58.36391
