;FLAVOR:RepRap
;TIME:2912
;Filament used: 1.42721m
;Layer height: 0.1
;Generated with Cura_SteamEngine 2.5.0-ExternalProfiles
M190 S60
M104 S200
M109 S200
G21 ;metric values
G90 ;absolute positioning
M82 ;set extruder to absolute mode
M107 ;start with the fan off
G28 X0 Y0 ;move X/Y to min endstops
G28 Z0 ;move Z to min endstops
G1 Z15.0 F9000 ;move the platform down 15mm
G92 E0 ;zero the extruded length
G1 F200 E3 ;extrude 3mm of feed stock
G92 E0 ;zero the extruded length again
G1 F9000
;Put printing message on LCD screen
M117 Printing...
;LAYER_COUNT:158
;LAYER:0
M107
G0 F3600 X86.761 Y86.876 Z0.3
;TYPE:SKIRT
G1 F1800 X87.963 Y85.766 E0.08163
G1 X88.564 Y85.281 E0.12016
G1 X90.01 Y84.265 E0.20832
G1 X90.653 Y83.873 E0.2459
G1 X92.1 Y83.115 E0.32739
G1 X92.602 Y82.882 E0.355
G1 X93.348 Y82.578 E0.39519
G1 X93.87 Y82.394 E0.42281
G1 X95.433 Y81.925 E0.50422
G1 X95.986 Y81.788 E0.53264
G1 X96.793 Y81.63 E0.57367
G1 X97.328 Y81.551 E0.60065
G1 X98.953 Y81.388 E0.68213
G1 X99.693 Y81.361 E0.71907
G1 X101.313 Y81.406 E0.79992
G1 X102.038 Y81.472 E0.83624
G1 X103.656 Y81.722 E0.91792
G1 X104.403 Y81.889 E0.95611
G1 X106.093 Y82.385 E1.04398
G1 X106.813 Y82.649 E1.08224
G1 X108.307 Y83.312 E1.16379
G1 X108.963 Y83.655 E1.20072
G1 X110.357 Y84.501 E1.28207
G1 X110.956 Y84.918 E1.31848
G1 X112.221 Y85.923 E1.39909
G1 X112.767 Y86.416 E1.43579
G1 X113.915 Y87.594 E1.51785
G1 X114.286 Y88.013 E1.54577
G1 X114.788 Y88.639 E1.58581
G1 X115.105 Y89.075 E1.6127
G1 X116.001 Y90.434 E1.69391
G1 X116.3 Y90.942 E1.72332
G1 X116.745 Y91.794 E1.77127
G1 X116.989 Y92.325 E1.80043
G1 X117.591 Y93.83 E1.8813
G1 X117.82 Y94.528 E1.91795
G1 X118.232 Y96.117 E1.99984
G1 X118.371 Y96.835 E2.03633
G1 X118.577 Y98.44 E2.11706
G1 X118.624 Y99.174 E2.15376
G1 X118.625 Y100.814 E2.23558
G1 X118.578 Y101.555 E2.27262
G1 X118.372 Y103.164 E2.35355
G1 X118.234 Y103.88 E2.38993
G1 X117.826 Y105.457 E2.47119
G1 X117.596 Y106.157 E2.50795
G1 X116.991 Y107.67 E2.58925
G1 X116.673 Y108.34 E2.62625
G1 X115.873 Y109.776 E2.70826
G1 X115.475 Y110.394 E2.74493
G1 X114.508 Y111.706 E2.82625
G1 X114.162 Y112.132 E2.85363
G1 X113.627 Y112.73 E2.89366
G1 X113.239 Y113.124 E2.92124
G1 X112.037 Y114.234 E3.00287
G1 X111.436 Y114.719 E3.0414
G1 X109.99 Y115.735 E3.12957
G1 X109.348 Y116.127 E3.1671
G1 X107.903 Y116.884 E3.24848
G1 X107.395 Y117.119 E3.27641
G1 X106.647 Y117.423 E3.31669
G1 X106.133 Y117.604 E3.34388
G1 X104.57 Y118.074 E3.4253
G1 X104.014 Y118.212 E3.45388
G1 X103.207 Y118.37 E3.49491
G1 X102.672 Y118.449 E3.52189
G1 X101.047 Y118.612 E3.60337
G1 X100.307 Y118.639 E3.64031
G1 X98.687 Y118.594 E3.72117
G1 X97.962 Y118.528 E3.75749
G1 X96.344 Y118.278 E3.83917
G1 X95.597 Y118.111 E3.87735
G1 X93.907 Y117.615 E3.96522
G1 X93.187 Y117.351 E4.00348
G1 X91.693 Y116.688 E4.08503
G1 X91.037 Y116.345 E4.12196
G1 X89.643 Y115.499 E4.20331
G1 X89.044 Y115.082 E4.23973
G1 X87.778 Y114.076 E4.3204
G1 X87.232 Y113.583 E4.3571
G1 X86.085 Y112.406 E4.43909
G1 X85.714 Y111.987 E4.46702
G1 X85.212 Y111.361 E4.50705
G1 X84.894 Y110.924 E4.53401
G1 X83.995 Y109.56 E4.61551
G1 X83.626 Y108.914 E4.65263
G1 X82.907 Y107.442 E4.73436
G1 X82.616 Y106.728 E4.77283
G1 X82.059 Y105.055 E4.8608
G1 X81.867 Y104.322 E4.8986
G1 X81.56 Y102.731 E4.97944
G1 X81.467 Y102.002 E5.0161
G1 X81.363 Y100.377 E5.09734
G1 X81.362 Y99.644 E5.13391
G1 X81.465 Y98.003 E5.21594
G1 X81.559 Y97.266 E5.25301
G1 X81.866 Y95.676 E5.3338
G1 X82.049 Y94.971 E5.37014
G1 X82.56 Y93.411 E5.45204
G1 X82.839 Y92.716 E5.4894
G1 X83.536 Y91.257 E5.57007
G1 X83.889 Y90.623 E5.60627
G1 X84.77 Y89.251 E5.68762
G1 X85.205 Y88.659 E5.72427
G1 X86.251 Y87.411 E5.80551
G1 X86.761 Y86.876 E5.84238
G0 F3600 X87.032 Y87.17
G1 F1800 X88.234 Y86.06 E5.92401
G1 X88.794 Y85.609 E5.95988
G1 X90.24 Y84.593 E6.04805
G1 X90.838 Y84.228 E6.083
G1 X92.285 Y83.47 E6.1645
G1 X92.753 Y83.252 E6.19026
G1 X93.499 Y82.948 E6.23045
G1 X93.985 Y82.777 E6.25615
G1 X95.548 Y82.308 E6.33757
G1 X96.062 Y82.181 E6.36398
G1 X96.869 Y82.023 E6.40501
G1 X97.368 Y81.949 E6.43017
G1 X98.993 Y81.786 E6.51165
G1 X99.682 Y81.761 E6.54605
G1 X101.302 Y81.806 E6.6269
G1 X101.977 Y81.867 E6.66072
G1 X103.595 Y82.117 E6.7424
G1 X104.291 Y82.273 E6.77798
G1 X105.981 Y82.769 E6.86585
G1 X106.65 Y83.014 E6.9014
G1 X108.144 Y83.677 E6.98294
G1 X108.756 Y83.997 E7.0174
G1 X110.15 Y84.843 E7.09875
G1 X110.707 Y85.231 E7.13261
G1 X111.972 Y86.236 E7.21322
G1 X112.48 Y86.695 E7.24738
G1 X113.628 Y87.873 E7.32944
G1 X113.974 Y88.264 E7.35549
G1 X114.476 Y88.89 E7.39552
G1 X114.771 Y89.296 E7.42056
G1 X115.667 Y90.655 E7.50177
G1 X115.945 Y91.127 E7.5291
G1 X116.39 Y91.979 E7.57705
G1 X116.618 Y92.473 E7.6042
G1 X117.22 Y93.978 E7.68507
G1 X117.433 Y94.629 E7.71924
G1 X117.845 Y96.218 E7.80114
G1 X117.974 Y96.886 E7.83508
G1 X118.18 Y98.491 E7.91581
G1 X118.224 Y99.175 E7.95
G1 X118.225 Y100.815 E8.03182
G1 X118.181 Y101.504 E8.06627
G1 X117.975 Y103.113 E8.1472
G1 X117.847 Y103.78 E8.18108
G1 X117.439 Y105.357 E8.26235
G1 X117.225 Y106.009 E8.29658
G1 X116.62 Y107.522 E8.37788
G1 X116.323 Y108.145 E8.41231
G1 X115.523 Y109.581 E8.49432
G1 X115.153 Y110.157 E8.52848
G1 X114.186 Y111.469 E8.60979
G1 X113.863 Y111.865 E8.63528
G1 X113.328 Y112.463 E8.67532
G1 X112.968 Y112.83 E8.70096
G1 X111.766 Y113.94 E8.78259
G1 X111.206 Y114.391 E8.81846
G1 X109.76 Y115.407 E8.90663
G1 X109.162 Y115.772 E8.94158
G1 X107.717 Y116.529 E9.02297
G1 X107.244 Y116.749 E9.049
G1 X106.496 Y117.053 E9.08928
G1 X106.018 Y117.221 E9.11455
G1 X104.455 Y117.691 E9.19598
G1 X103.938 Y117.819 E9.22255
G1 X103.131 Y117.977 E9.26358
G1 X102.632 Y118.051 E9.28875
G1 X101.007 Y118.214 E9.37023
G1 X100.318 Y118.239 E9.40462
G1 X98.698 Y118.194 E9.48548
G1 X98.023 Y118.133 E9.51929
G1 X96.405 Y117.883 E9.60097
G1 X95.709 Y117.727 E9.63655
G1 X94.019 Y117.231 E9.72443
G1 X93.35 Y116.986 E9.75997
G1 X91.856 Y116.323 E9.84152
G1 X91.244 Y116.003 E9.87597
G1 X89.85 Y115.157 E9.95732
G1 X89.293 Y114.769 E9.99119
G1 X88.027 Y113.763 E10.07186
G1 X87.519 Y113.304 E10.10602
G1 X86.372 Y112.127 E10.18801
G1 X86.026 Y111.736 E10.21406
G1 X85.524 Y111.11 E10.25409
G1 X85.228 Y110.704 E10.27916
G1 X84.329 Y109.34 E10.36066
G1 X83.986 Y108.738 E10.39523
G1 X83.267 Y107.266 E10.47696
G1 X82.995 Y106.602 E10.51276
G1 X82.438 Y104.929 E10.60073
G1 X82.26 Y104.246 E10.63594
G1 X81.953 Y102.655 E10.71678
G1 X81.866 Y101.977 E10.75089
G1 X81.762 Y100.352 E10.83212
G1 X81.762 Y99.669 E10.8662
G1 X81.865 Y98.028 E10.94823
G1 X81.952 Y97.342 E10.98273
G1 X82.259 Y95.752 E11.06352
G1 X82.429 Y95.095 E11.09738
G1 X82.94 Y93.535 E11.17927
G1 X83.199 Y92.888 E11.21404
G1 X83.896 Y91.429 E11.29471
G1 X84.225 Y90.839 E11.32841
G1 X85.106 Y89.467 E11.40976
G1 X85.511 Y88.916 E11.44388
G1 X86.557 Y87.668 E11.52512
G1 X87.032 Y87.17 E11.55945
G0 F3600 X87.304 Y87.464
G1 F1800 X88.506 Y86.354 E11.64108
G1 X89.023 Y85.936 E11.67425
G1 X90.469 Y84.92 E11.76242
G1 X91.024 Y84.582 E11.79484
G1 X92.471 Y83.824 E11.87633
G1 X92.904 Y83.623 E11.90015
G1 X93.65 Y83.319 E11.94034
G1 X94.1 Y83.16 E11.96415
G1 X95.663 Y82.691 E12.04556
G1 X96.139 Y82.573 E12.07003
G1 X96.946 Y82.415 E12.11105
G1 X97.408 Y82.347 E12.13435
G1 X99.033 Y82.184 E12.21583
G1 X99.671 Y82.161 E12.24768
G1 X101.291 Y82.206 E12.32853
G1 X101.915 Y82.263 E12.3598
G1 X103.533 Y82.513 E12.44148
G1 X104.178 Y82.656 E12.47444
G1 X105.868 Y83.152 E12.56231
G1 X106.488 Y83.38 E12.59526
G1 X107.982 Y84.043 E12.67681
G1 X108.548 Y84.339 E12.70868
G1 X109.942 Y85.185 E12.79003
G1 X110.458 Y85.544 E12.82139
G1 X111.723 Y86.549 E12.90199
G1 X112.194 Y86.974 E12.93364
G1 X113.342 Y88.152 E13.01571
G1 X113.662 Y88.514 E13.03981
G1 X114.164 Y89.14 E13.07984
G1 X114.437 Y89.516 E13.10303
G1 X115.333 Y90.875 E13.18424
G1 X115.591 Y91.312 E13.20956
G1 X116.036 Y92.164 E13.25751
G1 X116.246 Y92.622 E13.28265
G1 X116.848 Y94.127 E13.36352
G1 X117.046 Y94.729 E13.39513
G1 X117.458 Y96.318 E13.47703
G1 X117.577 Y96.936 E13.50843
G1 X117.783 Y98.541 E13.58916
G1 X117.824 Y99.175 E13.62086
G1 X117.825 Y100.815 E13.70268
G1 X117.785 Y101.453 E13.73457
G1 X117.579 Y103.062 E13.8155
G1 X117.46 Y103.679 E13.84685
G1 X117.052 Y105.256 E13.92811
G1 X116.854 Y105.86 E13.95982
G1 X116.249 Y107.373 E14.04112
G1 X115.974 Y107.95 E14.07301
G1 X115.174 Y109.386 E14.15502
G1 X114.831 Y109.92 E14.18668
G1 X113.864 Y111.232 E14.268
G1 X113.565 Y111.599 E14.29161
G1 X113.03 Y112.197 E14.33164
G1 X112.696 Y112.536 E14.35539
G1 X111.494 Y113.646 E14.43701
G1 X110.977 Y114.064 E14.47018
G1 X109.531 Y115.08 E14.55835
G1 X108.976 Y115.418 E14.59077
G1 X107.531 Y116.175 E14.67216
G1 X107.094 Y116.378 E14.6962
G1 X106.346 Y116.682 E14.73648
G1 X105.903 Y116.838 E14.75991
G1 X104.34 Y117.308 E14.84134
G1 X103.861 Y117.427 E14.86596
G1 X103.054 Y117.585 E14.90699
G1 X102.592 Y117.653 E14.93028
G1 X100.967 Y117.816 E15.01176
G1 X100.329 Y117.839 E15.04361
G1 X98.709 Y117.794 E15.12447
G1 X98.085 Y117.737 E15.15573
G1 X96.467 Y117.487 E15.23741
G1 X95.822 Y117.344 E15.27037
G1 X94.132 Y116.848 E15.35824
G1 X93.512 Y116.62 E15.3912
G1 X92.018 Y115.957 E15.47274
G1 X91.452 Y115.661 E15.50461
G1 X90.058 Y114.815 E15.58596
G1 X89.541 Y114.456 E15.61736
G1 X88.275 Y113.45 E15.69804
G1 X87.805 Y113.025 E15.72965
G1 X86.658 Y111.848 E15.81164
G1 X86.338 Y111.486 E15.83575
G1 X85.836 Y110.86 E15.87578
G1 X85.562 Y110.484 E15.89899
G1 X84.663 Y109.12 E15.98049
G1 X84.345 Y108.562 E16.01253
G1 X83.626 Y107.09 E16.09427
G1 X83.375 Y106.475 E16.1274
G1 X82.818 Y104.802 E16.21538
G1 X82.653 Y104.17 E16.24796
G1 X82.346 Y102.579 E16.3288
G1 X82.265 Y101.951 E16.36039
G1 X82.161 Y100.326 E16.44163
G1 X82.161 Y99.694 E16.47316
G1 X82.264 Y98.053 E16.55519
G1 X82.345 Y97.418 E16.58713
G1 X82.652 Y95.828 E16.66792
G1 X82.809 Y95.22 E16.69925
G1 X83.32 Y93.66 E16.78115
G1 X83.56 Y93.061 E16.81334
G1 X84.257 Y91.602 E16.89401
G1 X84.562 Y91.055 E16.92525
G1 X85.443 Y89.683 E17.0066
G1 X85.818 Y89.173 E17.03818
G1 X86.864 Y87.925 E17.11942
G1 X87.304 Y87.464 E17.15122
G0 F3600 X87.575 Y87.758
G1 F1800 X88.777 Y86.648 E17.23284
G1 X89.253 Y86.263 E17.26339
G1 X90.699 Y85.247 E17.35155
G1 X91.209 Y84.936 E17.38136
G1 X92.656 Y84.178 E17.46285
G1 X93.055 Y83.993 E17.48479
G1 X93.801 Y83.689 E17.52498
G1 X94.215 Y83.543 E17.54689
G1 X95.778 Y83.074 E17.6283
G1 X96.216 Y82.966 E17.65081
G1 X97.023 Y82.808 E17.69183
G1 X97.448 Y82.745 E17.71327
G1 X99.073 Y82.582 E17.79474
G1 X99.66 Y82.561 E17.82405
G1 X101.28 Y82.606 E17.9049
G1 X101.854 Y82.658 E17.93366
G1 X103.472 Y82.908 E18.01534
G1 X104.065 Y83.04 E18.04565
G1 X105.755 Y83.536 E18.13352
G1 X106.326 Y83.745 E18.16385
G1 X107.82 Y84.408 E18.2454
G1 X108.341 Y84.681 E18.27474
G1 X109.735 Y85.527 E18.3561
G1 X110.209 Y85.857 E18.38491
G1 X111.474 Y86.862 E18.46551
G1 X111.907 Y87.254 E18.49465
G1 X113.055 Y88.432 E18.57672
G1 X113.35 Y88.764 E18.59887
G1 X113.852 Y89.39 E18.63891
G1 X114.103 Y89.736 E18.66023
G1 X114.999 Y91.095 E18.74144
G1 X115.236 Y91.497 E18.76473
G1 X115.681 Y92.349 E18.81268
G1 X115.875 Y92.771 E18.83585
G1 X116.477 Y94.276 E18.91672
G1 X116.659 Y94.829 E18.94577
G1 X117.071 Y96.418 E19.02766
G1 X117.181 Y96.987 E19.05658
G1 X117.387 Y98.592 E19.13731
G1 X117.424 Y99.175 E19.16645
G1 X117.425 Y100.815 E19.24827
G1 X117.388 Y101.402 E19.27762
G1 X117.182 Y103.011 E19.35854
G1 X117.072 Y103.579 E19.38741
G1 X116.664 Y105.156 E19.46868
G1 X116.482 Y105.712 E19.49786
G1 X115.877 Y107.225 E19.57916
G1 X115.624 Y107.756 E19.6085
G1 X114.824 Y109.192 E19.69051
G1 X114.509 Y109.682 E19.71957
G1 X113.542 Y110.994 E19.80089
G1 X113.267 Y111.332 E19.82263
G1 X112.732 Y111.93 E19.86266
G1 X112.425 Y112.242 E19.8845
G1 X111.223 Y113.352 E19.96612
G1 X110.747 Y113.737 E19.99667
G1 X109.301 Y114.753 E20.08483
G1 X108.791 Y115.064 E20.11464
G1 X107.346 Y115.821 E20.19602
G1 X106.943 Y116.007 E20.21816
G1 X106.195 Y116.311 E20.25845
G1 X105.788 Y116.455 E20.27999
G1 X104.225 Y116.925 E20.36141
G1 X103.784 Y117.034 E20.38408
G1 X102.977 Y117.192 E20.4251
G1 X102.552 Y117.255 E20.44654
G1 X100.927 Y117.418 E20.52802
G1 X100.34 Y117.439 E20.55732
G1 X98.72 Y117.394 E20.63817
G1 X98.146 Y117.342 E20.66693
G1 X96.528 Y117.092 E20.74861
G1 X95.935 Y116.96 E20.77892
G1 X94.245 Y116.464 E20.86679
G1 X93.674 Y116.255 E20.89712
G1 X92.18 Y115.592 E20.97867
G1 X91.659 Y115.319 E21.00801
G1 X90.265 Y114.473 E21.08937
G1 X89.79 Y114.142 E21.11825
G1 X88.524 Y113.136 E21.19892
G1 X88.092 Y112.745 E21.22799
G1 X86.945 Y111.568 E21.30999
G1 X86.65 Y111.236 E21.33214
G1 X86.148 Y110.61 E21.37218
G1 X85.896 Y110.263 E21.39357
G1 X84.997 Y108.899 E21.47507
G1 X84.705 Y108.387 E21.50448
G1 X83.986 Y106.915 E21.58621
G1 X83.755 Y106.349 E21.61671
G1 X83.198 Y104.676 E21.70468
G1 X83.045 Y104.095 E21.73465
G1 X82.738 Y102.504 E21.81549
G1 X82.664 Y101.926 E21.84457
G1 X82.56 Y100.301 E21.9258
G1 X82.56 Y99.719 E21.95484
G1 X82.663 Y98.078 E22.03687
G1 X82.737 Y97.494 E22.06624
G1 X83.044 Y95.904 E22.14703
G1 X83.19 Y95.344 E22.1759
G1 X83.701 Y93.784 E22.2578
G1 X83.921 Y93.233 E22.2874
G1 X84.618 Y91.774 E22.36807
G1 X84.898 Y91.272 E22.39675
G1 X85.779 Y89.9 E22.47809
G1 X86.125 Y89.43 E22.50721
G1 X87.171 Y88.182 E22.58845
G1 X87.575 Y87.758 E22.61767
G0 F3600 X87.847 Y88.051
G1 F1800 X89.049 Y86.941 E22.6993
G1 X89.483 Y86.59 E22.72714
G1 X90.929 Y85.574 E22.81531
G1 X91.395 Y85.291 E22.84251
G1 X92.842 Y84.533 E22.92401
G1 X93.206 Y84.364 E22.94403
G1 X93.952 Y84.06 E22.98422
G1 X94.33 Y83.926 E23.00423
G1 X95.893 Y83.457 E23.08564
G1 X96.293 Y83.358 E23.1062
G1 X97.1 Y83.2 E23.14723
G1 X97.488 Y83.143 E23.16679
G1 X99.113 Y82.98 E23.24827
G1 X99.649 Y82.961 E23.27503
G1 X101.269 Y83.006 E23.35588
G1 X101.793 Y83.053 E23.38213
G1 X103.411 Y83.303 E23.46381
G1 X103.953 Y83.424 E23.49151
G1 X105.643 Y83.92 E23.57938
G1 X106.164 Y84.111 E23.60707
G1 X107.658 Y84.774 E23.68861
G1 X108.133 Y85.022 E23.71535
G1 X109.527 Y85.868 E23.7967
G1 X109.961 Y86.17 E23.82308
G1 X111.226 Y87.175 E23.90368
G1 X111.621 Y87.533 E23.93028
G1 X112.769 Y88.711 E24.01234
G1 X113.038 Y89.014 E24.03256
G1 X113.54 Y89.64 E24.07259
G1 X113.769 Y89.956 E24.09206
G1 X114.665 Y91.315 E24.17327
G1 X114.882 Y91.683 E24.19458
G1 X115.327 Y92.535 E24.24254
G1 X115.504 Y92.919 E24.26363
G1 X116.106 Y94.424 E24.3445
G1 X116.272 Y94.93 E24.37107
G1 X116.684 Y96.519 E24.45297
G1 X116.784 Y97.038 E24.47934
G1 X116.99 Y98.643 E24.56007
G1 X117.024 Y99.175 E24.58666
G1 X117.025 Y100.815 E24.66848
G1 X116.991 Y101.351 E24.69528
G1 X116.785 Y102.96 E24.77621
G1 X116.685 Y103.479 E24.80258
G1 X116.277 Y105.056 E24.88384
G1 X116.111 Y105.563 E24.91046
G1 X115.506 Y107.076 E24.99175
G1 X115.275 Y107.561 E25.01856
G1 X114.475 Y108.997 E25.10056
G1 X114.187 Y109.445 E25.12714
G1 X113.22 Y110.757 E25.20845
G1 X112.969 Y111.065 E25.22827
G1 X112.434 Y111.663 E25.2683
G1 X112.153 Y111.949 E25.28831
G1 X110.951 Y113.059 E25.36993
G1 X110.517 Y113.41 E25.39778
G1 X109.071 Y114.426 E25.48595
G1 X108.605 Y114.709 E25.51315
G1 X107.16 Y115.466 E25.59453
G1 X106.792 Y115.637 E25.61478
G1 X106.044 Y115.941 E25.65506
G1 X105.672 Y116.072 E25.67474
G1 X104.109 Y116.542 E25.75617
G1 X103.707 Y116.642 E25.77683
G1 X102.9 Y116.8 E25.81786
G1 X102.512 Y116.857 E25.83742
G1 X100.887 Y117.02 E25.9189
G1 X100.351 Y117.039 E25.94566
G1 X98.731 Y116.994 E26.02651
G1 X98.207 Y116.947 E26.05276
G1 X96.589 Y116.697 E26.13444
G1 X96.047 Y116.576 E26.16215
G1 X94.357 Y116.08 E26.25002
G1 X93.836 Y115.889 E26.2777
G1 X92.342 Y115.226 E26.35925
G1 X91.867 Y114.978 E26.38598
G1 X90.473 Y114.132 E26.46733
G1 X90.039 Y113.829 E26.49374
G1 X88.773 Y112.823 E26.57441
G1 X88.378 Y112.466 E26.60098
G1 X87.231 Y111.289 E26.68297
G1 X86.962 Y110.986 E26.70318
G1 X86.46 Y110.36 E26.74322
G1 X86.23 Y110.043 E26.76276
G1 X85.331 Y108.679 E26.84426
G1 X85.064 Y108.211 E26.87114
G1 X84.345 Y106.739 E26.95287
G1 X84.134 Y106.223 E26.98068
G1 X83.577 Y104.55 E27.06865
G1 X83.438 Y104.019 E27.09604
G1 X83.131 Y102.428 E27.17688
G1 X83.064 Y101.9 E27.20343
G1 X82.96 Y100.275 E27.28467
G1 X82.959 Y99.744 E27.31116
G1 X83.062 Y98.103 E27.39319
G1 X83.13 Y97.57 E27.42
