;FLAVOR:RepRap
;TIME:1286
;Filament used: 0.806856m
;Layer height: 0.1
;Generated with Cura_SteamEngine 2.5.0-ExternalProfiles
M190 S60
M104 S200
M109 S200
G21 ;metric values
G90 ;absolute positioning
M82 ;set extruder to absolute mode
M107 ;start with the fan off
G28 X0 Y0 ;move X/Y to min endstops
G28 Z0 ;move Z to min endstops
G1 Z15.0 F9000 ;move the platform down 15mm
G92 E0 ;zero the extruded length
G1 F200 E3 ;extrude 3mm of feed stock
G92 E0 ;zero the extruded length again
G1 F9000
;Put printing message on LCD screen
M117 Printing...
;LAYER_COUNT:22
;LAYER:0
M107
G0 F3600 X83.386 Y83.816 Z0.3
;TYPE:SKIRT
G1 F1800 X84.756 Y82.521 E0.09405
G1 X85.108 Y82.214 E0.11735
G1 X85.835 Y81.63 E0.16388
G1 X86.211 Y81.352 E0.18721
G1 X87.775 Y80.291 E0.2815
G1 X88.313 Y79.967 E0.31283
G1 X89.972 Y79.087 E0.40652
G1 X90.542 Y78.823 E0.43786
G1 X92.303 Y78.121 E0.53244
G1 X92.898 Y77.921 E0.56376
G1 X94.712 Y77.417 E0.65768
G1 X95.484 Y77.258 E0.69701
G1 X98.272 Y76.879 E0.83738
G1 X99.053 Y76.826 E0.87644
G1 X100.947 Y76.826 E0.97093
G1 X101.728 Y76.879 E1.00998
G1 X104.516 Y77.258 E1.15035
G1 X105.288 Y77.417 E1.18968
G1 X107.102 Y77.921 E1.28361
G1 X107.697 Y78.121 E1.31492
G1 X109.458 Y78.823 E1.4095
G1 X110.028 Y79.087 E1.44084
G1 X111.687 Y79.967 E1.53453
G1 X112.225 Y80.291 E1.56587
G1 X113.789 Y81.352 E1.66016
G1 X114.169 Y81.633 E1.68373
G1 X114.896 Y82.218 E1.73029
G1 X115.123 Y82.41 E1.74512
G1 X115.832 Y83.043 E1.79254
G1 X116.184 Y83.386 E1.81706
G1 X117.479 Y84.756 E1.91111
G1 X117.786 Y85.108 E1.93441
G1 X118.37 Y85.835 E1.98094
G1 X118.647 Y86.21 E2.0042
G1 X119.705 Y87.769 E2.0982
G1 X120.029 Y88.306 E2.12949
G1 X120.912 Y89.969 E2.22342
G1 X121.177 Y90.541 E2.25487
G1 X121.879 Y92.302 E2.34945
G1 X122.079 Y92.896 E2.38072
G1 X122.581 Y94.701 E2.47419
G1 X122.691 Y95.171 E2.49828
G1 X122.867 Y96.096 E2.54525
G1 X122.935 Y96.549 E2.56811
G1 X123.14 Y98.421 E2.66206
G1 X123.174 Y99.052 E2.69358
G1 X123.174 Y100.947 E2.78813
G1 X123.121 Y101.73 E2.82728
G1 X122.741 Y104.518 E2.96766
G1 X122.623 Y105.134 E2.99895
G1 X122.396 Y106.047 E3.04589
G1 X122.264 Y106.497 E3.06928
G1 X121.663 Y108.284 E3.16334
G1 X121.431 Y108.867 E3.19465
G1 X120.637 Y110.586 E3.28912
G1 X120.339 Y111.149 E3.3209
G1 X119.372 Y112.753 E3.41434
G1 X119.022 Y113.268 E3.4454
G1 X117.88 Y114.77 E3.53954
G1 X117.59 Y115.123 E3.56233
G1 X116.957 Y115.832 E3.60975
G1 X116.614 Y116.184 E3.63427
G1 X115.244 Y117.479 E3.72832
G1 X114.892 Y117.786 E3.75162
G1 X114.165 Y118.37 E3.79815
G1 X113.789 Y118.648 E3.82148
G1 X112.225 Y119.709 E3.91577
G1 X111.687 Y120.033 E3.9471
G1 X110.028 Y120.913 E4.04079
G1 X109.457 Y121.177 E4.07217
G1 X107.695 Y121.879 E4.1668
G1 X107.102 Y122.079 E4.19802
G1 X105.29 Y122.583 E4.29186
G1 X104.517 Y122.742 E4.33123
G1 X101.727 Y123.121 E4.4717
G1 X100.946 Y123.174 E4.51075
G1 X99.054 Y123.174 E4.60515
G1 X98.273 Y123.121 E4.6442
G1 X95.483 Y122.742 E4.78467
G1 X94.71 Y122.583 E4.82404
G1 X92.898 Y122.079 E4.91788
G1 X92.305 Y121.879 E4.9491
G1 X90.543 Y121.177 E5.04373
G1 X89.972 Y120.913 E5.07511
G1 X88.313 Y120.033 E5.1688
G1 X87.775 Y119.709 E5.20013
G1 X86.211 Y118.648 E5.29442
G1 X85.831 Y118.367 E5.318
G1 X85.104 Y117.782 E5.36456
G1 X84.877 Y117.589 E5.37942
G1 X84.167 Y116.955 E5.42691
G1 X83.815 Y116.613 E5.4514
G1 X82.521 Y115.244 E5.54538
G1 X82.214 Y114.892 E5.56868
G1 X81.63 Y114.165 E5.6152
G1 X81.352 Y113.788 E5.63857
G1 X80.288 Y112.219 E5.73315
G1 X79.964 Y111.681 E5.76448
G1 X79.087 Y110.027 E5.85788
G1 X78.823 Y109.458 E5.88918
G1 X78.121 Y107.697 E5.98376
G1 X77.921 Y107.102 E6.01508
G1 X77.417 Y105.288 E6.109
G1 X77.307 Y104.817 E6.13314
G1 X77.131 Y103.89 E6.18021
G1 X77.063 Y103.437 E6.20306
G1 X76.86 Y101.576 E6.29646
G1 X76.826 Y100.947 E6.32789
G1 X76.826 Y99.053 E6.42238
G1 X76.879 Y98.27 E6.46153
G1 X77.259 Y95.482 E6.60191
G1 X77.377 Y94.866 E6.6332
G1 X77.604 Y93.953 E6.68014
G1 X77.736 Y93.503 E6.70354
G1 X78.337 Y91.716 E6.7976
G1 X78.569 Y91.132 E6.82895
G1 X79.364 Y89.412 E6.92348
G1 X79.661 Y88.851 E6.95515
G1 X80.627 Y87.248 E7.04852
G1 X81.072 Y86.611 E7.08729
G1 X82.847 Y84.4 E7.22875
G1 X83.386 Y83.816 E7.26839
G0 F3600 X83.661 Y84.107
G1 F1800 X85.031 Y82.812 E7.36245
G1 X85.358 Y82.526 E7.38412
G1 X86.085 Y81.942 E7.43064
G1 X86.435 Y81.683 E7.45237
G1 X87.999 Y80.622 E7.54665
G1 X88.501 Y80.321 E7.57586
G1 X90.16 Y79.441 E7.66955
G1 X90.69 Y79.195 E7.6987
G1 X92.451 Y78.493 E7.79328
G1 X93.005 Y78.306 E7.82245
G1 X94.819 Y77.802 E7.91638
G1 X95.538 Y77.654 E7.953
G1 X98.326 Y77.275 E8.09338
G1 X99.053 Y77.226 E8.12973
G1 X100.947 Y77.226 E8.22422
G1 X101.674 Y77.275 E8.26057
G1 X104.462 Y77.654 E8.40095
G1 X105.181 Y77.802 E8.43757
G1 X106.995 Y78.306 E8.5315
G1 X107.549 Y78.493 E8.56067
G1 X109.31 Y79.195 E8.65525
G1 X109.84 Y79.441 E8.6844
G1 X111.499 Y80.321 E8.77809
G1 X112.001 Y80.622 E8.80729
G1 X113.565 Y81.683 E8.90158
G1 X113.918 Y81.945 E8.92351
G1 X114.645 Y82.53 E8.97007
G1 X114.856 Y82.709 E8.98387
G1 X115.565 Y83.342 E9.03129
G1 X115.893 Y83.661 E9.05412
G1 X117.188 Y85.031 E9.14817
G1 X117.474 Y85.358 E9.16984
G1 X118.058 Y86.085 E9.21637
G1 X118.316 Y86.435 E9.23806
G1 X119.374 Y87.994 E9.33206
G1 X119.675 Y88.494 E9.36118
G1 X120.558 Y90.157 E9.45511
G1 X120.805 Y90.689 E9.48438
G1 X121.507 Y92.45 E9.57896
G1 X121.694 Y93.003 E9.60808
G1 X122.196 Y94.808 E9.70155
G1 X122.298 Y95.246 E9.72399
G1 X122.474 Y96.171 E9.77096
G1 X122.537 Y96.592 E9.7922
G1 X122.742 Y98.464 E9.88615
G1 X122.774 Y99.052 E9.91553
G1 X122.774 Y100.947 E10.01007
G1 X122.725 Y101.676 E10.04653
G1 X122.345 Y104.464 E10.18691
G1 X122.234 Y105.038 E10.21607
G1 X122.007 Y105.951 E10.26301
G1 X121.885 Y106.369 E10.28473
G1 X121.284 Y108.156 E10.3788
G1 X121.068 Y108.699 E10.40795
G1 X120.274 Y110.418 E10.50242
G1 X119.997 Y110.942 E10.53199
G1 X119.03 Y112.546 E10.62543
G1 X118.704 Y113.026 E10.65438
G1 X117.562 Y114.528 E10.74851
G1 X117.291 Y114.856 E10.76974
G1 X116.658 Y115.565 E10.81716
G1 X116.339 Y115.893 E10.83999
G1 X114.969 Y117.188 E10.93404
G1 X114.642 Y117.474 E10.95571
G1 X113.915 Y118.058 E11.00223
G1 X113.565 Y118.317 E11.02396
G1 X112.001 Y119.378 E11.11825
G1 X111.499 Y119.679 E11.14745
G1 X109.84 Y120.559 E11.24114
G1 X109.309 Y120.806 E11.27036
G1 X107.547 Y121.508 E11.36498
G1 X106.995 Y121.694 E11.39404
G1 X105.183 Y122.198 E11.48788
G1 X104.463 Y122.346 E11.52455
G1 X101.673 Y122.725 E11.66502
G1 X100.946 Y122.774 E11.70137
G1 X99.054 Y122.774 E11.79577
G1 X98.327 Y122.725 E11.83212
G1 X95.537 Y122.346 E11.97259
G1 X94.817 Y122.198 E12.00926
G1 X93.005 Y121.694 E12.10309
G1 X92.453 Y121.508 E12.13216
G1 X90.691 Y120.806 E12.22678
G1 X90.16 Y120.559 E12.256
G1 X88.501 Y119.679 E12.34969
G1 X87.999 Y119.378 E12.37889
G1 X86.435 Y118.317 E12.47318
G1 X86.082 Y118.055 E12.49511
G1 X85.355 Y117.47 E12.54167
G1 X85.143 Y117.291 E12.55551
G1 X84.433 Y116.657 E12.603
G1 X84.106 Y116.338 E12.62579
G1 X82.812 Y114.969 E12.71977
G1 X82.526 Y114.642 E12.74145
G1 X81.942 Y113.915 E12.78797
G1 X81.683 Y113.564 E12.80973
G1 X80.619 Y111.995 E12.90431
G1 X80.317 Y111.494 E12.9335
G1 X79.44 Y109.84 E13.0269
G1 X79.195 Y109.31 E13.05603
G1 X78.493 Y107.549 E13.15061
G1 X78.306 Y106.995 E13.17978
G1 X77.802 Y105.181 E13.27371
G1 X77.7 Y104.742 E13.29619
G1 X77.524 Y103.815 E13.34327
G1 X77.461 Y103.394 E13.3645
G1 X77.258 Y101.533 E13.4579
G1 X77.226 Y100.947 E13.48718
G1 X77.226 Y99.053 E13.58167
G1 X77.275 Y98.324 E13.61812
G1 X77.655 Y95.536 E13.7585
G1 X77.766 Y94.962 E13.78767
G1 X77.993 Y94.049 E13.83461
G1 X78.115 Y93.631 E13.85633
G1 X78.716 Y91.844 E13.95039
G1 X78.932 Y91.299 E13.97964
G1 X79.727 Y89.579 E14.07418
G1 X80.004 Y89.058 E14.10361
G1 X80.97 Y87.455 E14.19699
G1 X81.384 Y86.861 E14.23311
G1 X83.159 Y84.65 E14.37456
G1 X83.661 Y84.107 E14.41146
G0 F3600 X83.935 Y84.397
G1 F1800 X85.305 Y83.102 E14.50551
G1 X85.609 Y82.838 E14.5256
G1 X86.336 Y82.254 E14.57212
G1 X86.66 Y82.014 E14.59224
G1 X88.224 Y80.953 E14.68653
G1 X88.688 Y80.674 E14.71354
G1 X90.347 Y79.794 E14.80723
G1 X90.839 Y79.566 E14.83428
G1 X92.6 Y78.864 E14.92886
G1 X93.113 Y78.691 E14.95587
G1 X94.927 Y78.187 E15.0498
G1 X95.591 Y78.051 E15.08362
G1 X98.379 Y77.672 E15.22399
G1 X99.053 Y77.626 E15.25769
G1 X100.947 Y77.626 E15.35219
G1 X101.621 Y77.672 E15.38589
G1 X104.409 Y78.051 E15.52626
G1 X105.073 Y78.187 E15.56008
G1 X106.887 Y78.691 E15.65401
G1 X107.4 Y78.864 E15.68102
G1 X109.161 Y79.566 E15.7756
G1 X109.653 Y79.794 E15.80265
G1 X111.312 Y80.674 E15.89634
G1 X111.776 Y80.953 E15.92335
G1 X113.34 Y82.014 E16.01764
G1 X113.668 Y82.257 E16.03801
G1 X114.395 Y82.842 E16.08456
G1 X114.59 Y83.007 E16.09731
G1 X115.299 Y83.64 E16.14472
G1 X115.603 Y83.935 E16.16586
G1 X116.898 Y85.305 E16.25991
G1 X117.162 Y85.609 E16.28
G1 X117.746 Y86.336 E16.32652
G1 X117.985 Y86.659 E16.34657
G1 X119.043 Y88.218 E16.44057
G1 X119.322 Y88.681 E16.46753
G1 X120.205 Y90.344 E16.56147
G1 X120.434 Y90.838 E16.58864
G1 X121.136 Y92.599 E16.68322
G1 X121.308 Y93.11 E16.71012
G1 X121.81 Y94.915 E16.80359
G1 X121.905 Y95.32 E16.82434
G1 X122.081 Y96.245 E16.87132
G1 X122.139 Y96.636 E16.89104
G1 X122.344 Y98.508 E16.98499
G1 X122.374 Y99.052 E17.01217
G1 X122.374 Y100.947 E17.10671
G1 X122.328 Y101.622 E17.14047
G1 X121.948 Y104.41 E17.28085
G1 X121.846 Y104.941 E17.30782
G1 X121.619 Y105.854 E17.35476
G1 X121.506 Y106.242 E17.37492
G1 X120.905 Y108.029 E17.46898
G1 X120.705 Y108.532 E17.49599
G1 X119.911 Y110.251 E17.59046
G1 X119.654 Y110.736 E17.61784
G1 X118.687 Y112.34 E17.71128
G1 X118.385 Y112.784 E17.73807
G1 X117.243 Y114.286 E17.83221
G1 X116.993 Y114.59 E17.85184
G1 X116.36 Y115.299 E17.89926
G1 X116.065 Y115.603 E17.92039
G1 X114.695 Y116.898 E18.01445
G1 X114.391 Y117.162 E18.03453
G1 X113.664 Y117.746 E18.08106
G1 X113.34 Y117.986 E18.10117
G1 X111.776 Y119.047 E18.19546
G1 X111.312 Y119.326 E18.22247
G1 X109.653 Y120.206 E18.31616
G1 X109.161 Y120.434 E18.34322
G1 X107.399 Y121.136 E18.43784
G1 X106.888 Y121.308 E18.46474
G1 X105.076 Y121.812 E18.55858
G1 X104.409 Y121.949 E18.59255
G1 X101.619 Y122.328 E18.73302
G1 X100.946 Y122.374 E18.76667
G1 X99.054 Y122.374 E18.86107
G1 X98.381 Y122.328 E18.89472
G1 X95.591 Y121.949 E19.03519
G1 X94.924 Y121.812 E19.06917
G1 X93.112 Y121.308 E19.163
G1 X92.601 Y121.136 E19.1899
G1 X90.839 Y120.434 E19.28452
G1 X90.347 Y120.206 E19.31158
G1 X88.688 Y119.326 E19.40527
G1 X88.224 Y119.047 E19.43228
G1 X86.66 Y117.986 E19.52657
G1 X86.332 Y117.743 E19.54693
G1 X85.605 Y117.158 E19.59349
G1 X85.41 Y116.993 E19.60623
G1 X84.7 Y116.359 E19.65372
G1 X84.396 Y116.064 E19.67486
G1 X83.102 Y114.695 E19.76884
G1 X82.838 Y114.391 E19.78892
G1 X82.254 Y113.664 E19.83545
G1 X82.014 Y113.339 E19.8556
G1 X80.95 Y111.77 E19.95018
G1 X80.671 Y111.306 E19.9772
G1 X79.794 Y109.652 E20.0706
G1 X79.566 Y109.161 E20.0976
G1 X78.864 Y107.4 E20.19218
G1 X78.691 Y106.887 E20.21919
G1 X78.187 Y105.073 E20.31312
G1 X78.093 Y104.668 E20.33387
G1 X77.917 Y103.741 E20.38094
G1 X77.858 Y103.35 E20.40067
G1 X77.655 Y101.489 E20.49406
G1 X77.626 Y100.947 E20.52114
G1 X77.626 Y99.053 E20.61564
G1 X77.672 Y98.378 E20.64939
G1 X78.052 Y95.59 E20.78977
G1 X78.154 Y95.059 E20.81675
G1 X78.381 Y94.146 E20.86368
G1 X78.494 Y93.758 E20.88384
G1 X79.095 Y91.971 E20.9779
G1 X79.295 Y91.467 E21.00496
G1 X80.09 Y89.747 E21.09949
G1 X80.346 Y89.264 E21.12676
G1 X81.312 Y87.661 E21.22014
G1 X81.696 Y87.112 E21.25356
G1 X83.471 Y84.901 E21.39502
G1 X83.935 Y84.397 E21.42919
G0 F3600 X84.21 Y84.688
G1 F1800 X85.58 Y83.393 E21.52325
G1 X85.859 Y83.15 E21.54171
G1 X86.586 Y82.566 E21.58823
G1 X86.885 Y82.345 E21.60678
G1 X88.449 Y81.284 E21.70107
G1 X88.875 Y81.027 E21.72589
G1 X90.534 Y80.147 E21.81958
G1 X90.987 Y79.938 E21.84447
G1 X92.748 Y79.236 E21.93905
G1 X93.22 Y79.077 E21.9639
G1 X95.034 Y78.573 E22.05783
G1 X95.645 Y78.447 E22.08895
G1 X98.433 Y78.068 E22.22932
G1 X99.053 Y78.026 E22.26033
G1 X100.947 Y78.026 E22.35482
G1 X101.567 Y78.068 E22.38582
G1 X104.355 Y78.447 E22.5262
G1 X104.966 Y78.573 E22.55732
G1 X106.78 Y79.077 E22.65125
G1 X107.252 Y79.236 E22.6761
G1 X109.013 Y79.938 E22.77068
G1 X109.466 Y80.147 E22.79557
G1 X111.125 Y81.027 E22.88926
G1 X111.551 Y81.284 E22.91408
G1 X113.115 Y82.345 E23.00837
G1 X113.417 Y82.568 E23.0271
G1 X114.144 Y83.153 E23.07365
G1 X114.324 Y83.306 E23.08544
G1 X115.033 Y83.939 E23.13286
G1 X115.312 Y84.21 E23.15226
G1 X116.607 Y85.58 E23.24631
G1 X116.85 Y85.859 E23.26477
G1 X117.434 Y86.586 E23.3113
G1 X117.654 Y86.884 E23.32978
G1 X118.712 Y88.443 E23.42377
G1 X118.969 Y88.869 E23.44859
G1 X119.852 Y90.532 E23.54253
G1 X120.062 Y90.986 E23.56749
G1 X120.764 Y92.747 E23.66207
G1 X120.923 Y93.217 E23.68682
G1 X121.425 Y95.022 E23.78029
G1 X121.512 Y95.395 E23.7994
G1 X121.688 Y96.32 E23.84638
G1 X121.742 Y96.679 E23.86449
G1 X121.947 Y98.551 E23.95844
G1 X121.974 Y99.052 E23.98347
G1 X121.974 Y100.947 E24.07801
G1 X121.932 Y101.568 E24.10907
G1 X121.552 Y104.356 E24.24945
G1 X121.458 Y104.845 E24.27429
G1 X121.231 Y105.758 E24.32123
G1 X121.127 Y106.114 E24.33973
G1 X120.526 Y107.901 E24.43379
G1 X120.342 Y108.364 E24.45865
G1 X119.548 Y110.083 E24.55312
G1 X119.311 Y110.529 E24.57831
G1 X118.344 Y112.133 E24.67175
G1 X118.067 Y112.542 E24.6964
G1 X116.925 Y114.044 E24.79053
G1 X116.694 Y114.324 E24.80864
G1 X116.061 Y115.033 E24.85606
G1 X115.79 Y115.312 E24.87547
G1 X114.42 Y116.607 E24.96952
G1 X114.141 Y116.85 E24.98798
G1 X113.414 Y117.434 E25.0345
G1 X113.115 Y117.655 E25.05305
G1 X111.551 Y118.716 E25.14734
G1 X111.125 Y118.973 E25.17216
G1 X109.466 Y119.853 E25.26585
G1 X109.013 Y120.062 E25.29074
G1 X107.251 Y120.764 E25.38537
G1 X106.781 Y120.923 E25.41012
G1 X104.969 Y121.427 E25.50395
G1 X104.355 Y121.553 E25.53523
G1 X101.565 Y121.932 E25.6757
G1 X100.946 Y121.974 E25.70665
G1 X99.054 Y121.974 E25.80104
G1 X98.435 Y121.932 E25.832
G1 X95.645 Y121.553 E25.97247
G1 X95.031 Y121.427 E26.00374
G1 X93.219 Y120.923 E26.09757
G1 X92.749 Y120.764 E26.12233
G1 X90.987 Y120.062 E26.21695
G1 X90.534 Y119.853 E26.24184
G1 X88.875 Y118.973 E26.33553
G1 X88.449 Y118.716 E26.36035
G1 X86.885 Y117.655 E26.45464
G1 X86.583 Y117.432 E26.47337
G1 X85.856 Y116.847 E26.51993
G1 X85.676 Y116.694 E26.53171
G1 X84.966 Y116.06 E26.5792
G1 X84.687 Y115.789 E26.59861
G1 X83.393 Y114.42 E26.69259
G1 X83.15 Y114.141 E26.71105
G1 X82.566 Y113.414 E26.75757
G1 X82.345 Y113.115 E26.77612
G1 X81.281 Y111.546 E26.8707
G1 X81.024 Y111.119 E26.89556
G1 X80.147 Y109.465 E26.98896
G1 X79.938 Y109.013 E27.01381
G1 X79.236 Y107.252 E27.10839
G1 X79.077 Y106.78 E27.13324
G1 X78.573 Y104.966 E27.22717
G1 X78.486 Y104.593 E27.24627
G1 X78.31 Y103.666 E27.29335
G1 X78.256 Y103.307 E27.31146
G1 X78.053 Y101.446 E27.40486
G1 X78.026 Y100.947 E27.42979
G1 X78.026 Y99.053 E27.52428
G1 X78.068 Y98.432 E27.55533
G1 X78.448 Y95.644 E27.69571
G1 X78.542 Y95.155 E27.72056
G1 X78.769 Y94.242 E27.76749
G1 X78.873 Y93.886 E27.786
G1 X79.474 Y92.099 E27.88006
G1 X79.658 Y91.635 E27.90496
G1 X80.453 Y89.915 E27.99949
G1 X80.689 Y89.471 E28.02458
G1 X81.655 Y87.868 E28.11795
G1 X82.008 Y87.362 E28.14873
G1 X83.783 Y85.151 E28.29019
G1 X84.21 Y84.688 E28.32161
G0 F3600 X84.485 Y84.979
G1 F1800 X85.855 Y83.684 E28.41566
G1 X86.11 Y83.462 E28.43253
G1 X86.837 Y82.878 E28.47905
G1 X87.109 Y82.676 E28.49596
G1 X88.673 Y81.615 E28.59025
G1 X89.063 Y81.381 E28.61294
G1 X90.722 Y80.501 E28.70663
G1 X91.135 Y80.31 E28.72933
G1 X92.896 Y79.608 E28.82391
G1 X93.327 Y79.462 E28.84661
G1 X95.141 Y78.958 E28.94054
G1 X95.699 Y78.843 E28.96897
G1 X98.487 Y78.464 E29.10934
G1 X99.053 Y78.426 E29.13764
G1 X100.947 Y78.426 E29.23213
G1 X101.513 Y78.464 E29.26043
G1 X104.301 Y78.843 E29.40081
G1 X104.859 Y78.958 E29.42923
G1 X106.673 Y79.462 E29.52316
G1 X107.104 Y79.608 E29.54586
G1 X108.865 Y80.31 E29.64044
G1 X109.278 Y80.501 E29.66314
G1 X110.937 Y81.381 E29.75683
G1 X111.327 Y81.615 E29.77953
G1 X112.891 Y82.676 E29.87381
G1 X113.166 Y82.88 E29.8909
G1 X113.893 Y83.465 E29.93745
G1 X114.057 Y83.604 E29.94818
G1 X114.766 Y84.237 E29.9956
G1 X115.021 Y84.485 E30.01334
G1 X116.316 Y85.855 E30.10739
